X: 9
T: Catharsis
R: reel
M: 4/4
L: 1/8
K: Gmin
"Gm"DF GF DF GF|DF GA BG AF|DF GF DF GF|"F" DE DC "Dm"B,C A,B,|
"Gm" G,F GF DF GF|DF GA B2 Bc|"Eb"dc BA BA GF|1 "Dm" DG GF "Gm"G2 G2:|2 "Dm"DG GF "Gm"GA Bc||
"Gm"dG Gc GG BG|GA GG AG Ac|"F"dF Fc FF BF|FA FF AG Ac|
"Eb" dE Ec EE BE|EA EE AG Ac|"Cm" dc BA "Gm"BA GF|1 "Dm" DG GF "Gm"GA Bc]:|2 "Dm" DG GF "Gm"G2 G2||

%%newpage
%% header "Pizza Wizards - Green Mountain / Old Bush		$P"


